**kern	**silbe	**harmony	**chordsym	**phrase	**timestamp	**leadinstrument
*ICvox	*	*M4/4	*M4/4	*	*	*
*	*	*e:	*e:	*e:	*e:	*e:
=1	=1	=1	=1	=1	=1	=1
*e:	*	*	*	*	*	*
*M4/4	*	*	*	*	*	*
*clefC3	*	*	*	*	*	*
1r	.	1r;	r	.	0	r
=2	=2	=2	=2	=2	=2	=2
*	*	*>A_intro	*>A_intro	*>A_intro	*>A_intro	*>A_intro
1r	.	1Emm	E:min7 (E G B D)	newline	0.348	guitar
=3	=3	=3	=3	=3	=3	=3
1r	.	2Emm	E:min9 (E G D F#)	.	.	guitar
.	.	2Emm	E:min7 (E G B D)	.	.	guitar
=4	=4	=4	=4	=4	=4	=4
1r	.	1Emm	E:min7 (E G B D)	.	.	guitar
=5	=5	=5	=5	=5	=5	=5
1r	.	2Emm	E:min9 (E G D F#)	.	.	guitar
.	.	2Emm	E:min7 (E G B D)	.	.	guitar
=6	=6	=6	=6	=6	=6	=6
1r	.	1Emm	E:min7 (E G B D)	newline	8.36	guitar
=7	=7	=7	=7	=7	=7	=7
1r	.	2Emm	E:min9 (E G D F#)	.	.	guitar
.	.	2Emm	E:min7 (E G B D)	.	.	guitar
=8	=8	=8	=8	=8	=8	=8
2r	.	1Emm	E:min7 (E G B D)	.	.	guitar
8r	.	.	.	.	.	.
8B	I	.	.	.	.	.
8B	get	.	.	.	.	.
8B	a	.	.	.	.	.
=9	=9	=9	=9	=9	=9	=9
4d	con-	2Emm	E:min9 (E G D F#)	.	.	guitar
8e	-stant	.	.	.	.	.
[8e	bu	.	.	.	.	.
4e]	_	2Emm	E:min7 (E G B D)	.	.	guitar
8d	sy	.	.	.	.	.
8e	sig-	.	.	.	.	.
=10	=10	=10	=10	=10	=10	=10
*	*	*>B_verse	*>B_verse	*>B_verse	*>B_verse	*>B_verse
8E	-nal,	1Emm	E:min7 (E G B D)	newline	16.061	voice
8r	_	.	.	.	.	.
4r	.	.	.	.	.	.
4r	.	.	.	.	.	.
8G	when	.	.	.	.	.
8A	I	.	.	.	.	.
=11	=11	=11	=11	=11	=11	=11
8A#q	_	.	.	.	.	.
4B	call	2Emm	E:min9 (E G D F#)	.	.	voice
8A	you	.	.	.	.	.
8Gq	_	.	.	.	.	.
[8A	on	.	.	.	.	.
4A]	_	2Emm	E:min7 (E G B D)	.	.	voice
8G	the	.	.	.	.	.
8G	phone	.	.	.	.	.
=12	=12	=12	=12	=12	=12	=12
4E	_	1Emm	E:min7 (E G B D)	.	.	voice
4r	.	.	.	.	.	.
8r	.	.	.	.	.	.
8B	I	.	.	.	.	.
8B	get	.	.	.	.	.
8B	a	.	.	.	.	.
=13	=13	=13	=13	=13	=13	=13
4d	strong,	2Emm	E:min9 (E G D F#)	.	.	voice
8e	un-	.	.	.	.	.
8dq	_	.	.	.	.	.
[8e	-ea	.	.	.	.	.
4e]	_	2Emm	E:min7 (E G B D)	.	.	voice
8d	sy	.	.	.	.	.
8e	fee	.	.	.	.	.
=14	=14	=14	=14	=14	=14	=14
8d	_	1Emm	E:min7 (E G B D)	newline	23.667	voice
4e	ling,	.	.	.	.	.
8r	_	.	.	.	.	.
8r	.	.	.	.	.	.
8E	you're	.	.	.	.	.
4G	not	.	.	.	.	.
=15	=15	=15	=15	=15	=15	=15
8e	sit-	2Emm	E:min9 (E G D F#)	.	.	voice
8dq	_	.	.	.	.	.
4.e	-ting	.	.	.	.	.
8Aq	_	.	.	.	.	.
8B	there	2Emm	E:min7 (E G B D)	.	.	voice
8A	_	.	.	.	.	.
8G	a-	.	.	.	.	.
8G	-lone	.	.	.	.	.
=16	=16	=16	=16	=16	=16	=16
4E	_	1Emm	E:min7 (E G B D)	.	.	voice
4r	.	.	.	.	.	.
8r	.	.	.	.	.	.
8B	I'm	.	.	.	.	.
8e	ha-	.	.	.	.	.
8d	-ving	.	.	.	.	.
=17	=17	=17	=17	=17	=17	=17
4e	nas-	2Emm	E:min9 (E G D F#)	.	.	voice
8e	-ty,	.	.	.	.	.
[8e	nas	.	.	.	.	.
8e]	_	2Emm	E:min7 (E G B D)	.	.	voice
4e	ty	.	.	.	.	.
8e	vi	.	.	.	.	.
=18	=18	=18	=18	=18	=18	=18
8d	_	1Amm	A:min7 (A C E G)	newline	31.257	voice
4e	sions,	.	.	.	.	.
8r	_	.	.	.	.	.
8r	.	.	.	.	.	.
8B	and	.	.	.	.	.
8d	ba-	.	.	.	.	.
8e	-by,	.	.	.	.	.
=19	=19	=19	=19	=19	=19	=19
8dq	_	.	.	.	.	.
4e	you're	1Amm	A:min7 (A C E G)	.	.	voice
8d	in	.	.	.	.	.
8A	ev-	.	.	.	.	.
8G	-'ry	.	.	.	.	.
8Aq	_	.	.	.	.	.
4B	one,	.	.	.	.	.
8G	y-	.	.	.	.	.
=20	=20	=20	=20	=20	=20	=20
16A	-yeah!	1Emm	E:min7 (E G B D)	.	.	voice
16G	_	.	.	.	.	.
8E	_	.	.	.	.	.
4r	_	.	.	.	.	.
4r	.	.	.	.	.	.
8B	And	.	.	.	.	.
8B	I'm	.	.	.	.	.
=21	=21	=21	=21	=21	=21	=21
8d	so	1Emm	E:min7 (E G B D)	.	.	voice
8e	a-	.	.	.	.	.
[4e	-fraid	.	.	.	.	.
8e]	_	.	.	.	.	.
8d	I'm	.	.	.	.	.
8e	gon-	.	.	.	.	.
8d	-na	.	.	.	.	.
=22	=22	=22	=22	=22	=22	=22
8g	find	1Amm	A:min7 (A C E G)	newline	38.894	voice
8e	you	.	.	.	.	.
4e	with	.	.	.	.	.
4r	.	.	.	.	.	.
8r	.	.	.	.	.	.
8E	a	.	.	.	.	.
=23	=23	=23	=23	=23	=23	=23
8Aq	_	.	.	.	.	.
4B-	so-	1Amm	A:min7 (A C E G)	.	.	voice
8A	-called	.	.	.	.	.
8G	_	.	.	.	.	.
8A	smo	.	.	.	.	.
8G	_	.	.	.	.	.
8E	king	.	.	.	.	.
8G	gun	.	.	.	.	.
=24	=24	=24	=24	=24	=24	=24
4.E	_	2B-M	B-:1 (B-)	.	.	voice
8r	.	.	.	.	.	.
2r	.	2Amm	A:1 (A)	.	.	voice
=25	=25	=25	=25	=25	=25	=25
*	*	*>A_trans	*>A_trans	*>A_trans	*>A_trans	*>A_trans
1r	.	1Emm	E:min7 (E G B D)	newline	44.618	guitar
=26	=26	=26	=26	=26	=26	=26
1r	.	2Emm	E:min9 (E G D F#)	.	.	guitar
.	.	2Emm	E:min7 (E G B D)	.	.	guitar
=27	=27	=27	=27	=27	=27	=27
1r	.	1Emm	E:min7 (E G B D)	.	.	guitar
=28	=28	=28	=28	=28	=28	=28
8aq	_	.	.	.	.	.
8b	May-	2Emm	E:min9 (E G D F#)	.	.	guitar
8a	-be	.	.	.	.	.
8g	you	.	.	.	.	.
8gq	_	.	.	.	.	.
[8a	wan	.	.	.	.	.
4a]	_	2Emm	E:min7 (E G B D)	.	.	guitar
8g	na	.	.	.	.	.
16g	end	.	.	.	.	.
[16e	_	.	.	.	.	.
=29	=29	=29	=29	=29	=29	=29
*	*	*>B_verse	*>B_verse	*>B_verse	*>B_verse	*>B_verse
8e]	_	1Emm	E:min7 (E G B D)	newline	52.27	voice
8e	it!	.	.	.	.	.
4r	_	.	.	.	.	.
8r	.	.	.	.	.	.
8E	You've	.	.	.	.	.
8G	had	.	.	.	.	.
8A	your	.	.	.	.	.
=30	=30	=30	=30	=30	=30	=30
8Aq	_	.	.	.	.	.
4B	fill	2Emm	E:min9 (E G D F#)	.	.	voice
8A	with	.	.	.	.	.
8Gq	_	.	.	.	.	.
[8A	my	.	.	.	.	.
8A]	_	2Emm	E:min7 (E G B D)	.	.	voice
8G	kin-	.	.	.	.	.
8G	-da	.	.	.	.	.
8G	fun	.	.	.	.	.
=31	=31	=31	=31	=31	=31	=31
4E	_	1Emm	E:min7 (E G B D)	.	.	voice
4r	.	.	.	.	.	.
4r	.	.	.	.	.	.
8B	But	.	.	.	.	.
8B	you	.	.	.	.	.
=32	=32	=32	=32	=32	=32	=32
4g	don't	2Emm	E:min9 (E G D F#)	.	.	voice
8e	know	.	.	.	.	.
[8e	how	.	.	.	.	.
4e]	_	2Emm	E:min7 (E G B D)	.	.	voice
8d	to	.	.	.	.	.
8e	tell	.	.	.	.	.
=33	=33	=33	=33	=33	=33	=33
8d	_	1Emm	E:min7 (E G B D)	newline	59.888	voice
8e	me,	.	.	.	.	.
4r	_	.	.	.	.	.
4r	.	.	.	.	.	.
8G	and	.	.	.	.	.
8A	you	.	.	.	.	.
=34	=34	=34	=34	=34	=34	=34
8A	know	2Emm	E:min9 (E G D F#)	.	.	voice
8B	_	.	.	.	.	.
8A	that	.	.	.	.	.
8G	I'm	.	.	.	.	.
8A	not	2Emm	E:min7 (E G B D)	.	.	voice
4G	that	.	.	.	.	.
8G	dumb	.	.	.	.	.
=35	=35	=35	=35	=35	=35	=35
4E	_	1Emm	E:min7 (E G B D)	.	.	voice
4r	.	.	.	.	.	.
4r	.	.	.	.	.	.
8B	I	.	.	.	.	.
8B	put	.	.	.	.	.
=36	=36	=36	=36	=36	=36	=36
8e	one	2Emm	E:min9 (E G D F#)	.	.	voice
8d	and	.	.	.	.	.
[4e	two	.	.	.	.	.
4e]	_	2Emm	E:min7 (E G B D)	.	.	voice
8d	to-	.	.	.	.	.
8e	-ge	.	.	.	.	.
=37	=37	=37	=37	=37	=37	=37
8B	_	1Amm	A:min7 (A C E G)	newline	67.49	voice
8B	ther,	.	.	.	.	.
4r	_	.	.	.	.	.
4r	.	.	.	.	.	.
8E	and	.	.	.	.	.
8G	you	.	.	.	.	.
=38	=38	=38	=38	=38	=38	=38
8B	know	1Amm	A:min7 (A C E G)	.	.	voice
8G	that's	.	.	.	.	.
8A	not	.	.	.	.	.
8G	an	.	.	.	.	.
8A	e	.	.	.	.	.
8G	_	.	.	.	.	.
8E	ven	.	.	.	.	.
[8G	sum,	.	.	.	.	.
=39	=39	=39	=39	=39	=39	=39
4G]	_	1Emm	E:min7 (E G B D)	.	.	voice
4r	_	.	.	.	.	.
4r	.	.	.	.	.	.
8B	and	.	.	.	.	.
8B	I	.	.	.	.	.
=40	=40	=40	=40	=40	=40	=40
8f#q	_	.	.	.	.	.
4g	know	1Emm	E:min7 (E G B D)	.	.	voice
8e	just	.	.	.	.	.
[8e	where	.	.	.	.	.
4.e]	_	.	.	.	.	.
8d	to	.	.	.	.	.
=41	=41	=41	=41	=41	=41	=41
8e	catch	1Amm	A:min7 (A C E G)	newline	75.108	voice
8d	you	.	.	.	.	.
4e	with	.	.	.	.	.
4r	.	.	.	.	.	.
8r	.	.	.	.	.	.
8E	that	.	.	.	.	.
=42	=42	=42	=42	=42	=42	=42
8Aq	_	.	.	.	.	.
4B-	well-	1Amm	A:min7 (A C E G)	.	.	voice
8A	-known	.	.	.	.	.
8G	_	.	.	.	.	.
8A	smo	.	.	.	.	.
8G	_	.	.	.	.	.
8E	king	.	.	.	.	.
8G	gun	.	.	.	.	.
=43	=43	=43	=43	=43	=43	=43
4E	_	2B-M	B-:1 (B-)	.	.	voice
4r	.	.	.	.	.	.
2r	.	2Amm	A:1 (A)	.	.	voice
=44	=44	=44	=44	=44	=44	=44
*	*	*>A_trans	*>A_trans	*>A_trans	*>A_trans	*>A_trans
1r	.	1Emm	E:min7 (E G B D)	newline	80.823	guitar
=45	=45	=45	=45	=45	=45	=45
1r	.	2Emm	E:min9 (E G D F#)	.	.	guitar
.	.	2Emm	E:min7 (E G B D)	.	.	guitar
=46	=46	=46	=46	=46	=46	=46
1r	.	1Emm	E:min7 (E G B D)	.	.	guitar
=47	=47	=47	=47	=47	=47	=47
1r	.	2Emm	E:min9 (E G D F#)	.	.	guitar
.	.	2Emm	E:min7 (E G B D)	.	.	guitar
=48	=48	=48	=48	=48	=48	=48
*	*	*>B2_solo	*>B2_solo	*>B2_solo	*>B2_solo	*>B2_solo
1r	.	1Emm	E:min7 (E G B D)	newline	88.443	guitar
=49	=49	=49	=49	=49	=49	=49
1r	.	2Emm	E:min9 (E G D F#)	.	.	guitar
.	.	2Emm	E:min7 (E G B D)	.	.	guitar
=50	=50	=50	=50	=50	=50	=50
1r	.	1Emm	E:min7 (E G B D)	.	.	guitar
=51	=51	=51	=51	=51	=51	=51
1r	.	2Emm	E:min9 (E G D F#)	.	.	guitar
.	.	2Emm	E:min7 (E G B D)	.	.	guitar
=52	=52	=52	=52	=52	=52	=52
1r	.	1Emm	E:min7 (E G B D)	newline	96.083	guitar
=53	=53	=53	=53	=53	=53	=53
1r	.	2Emm	E:min9 (E G D F#)	.	.	guitar
.	.	2Emm	E:min7 (E G B D)	.	.	guitar
=54	=54	=54	=54	=54	=54	=54
1r	.	1Emm	E:min7 (E G B D)	.	.	guitar
=55	=55	=55	=55	=55	=55	=55
1r	.	2Emm	E:min9 (E G D F#)	.	.	guitar
.	.	2Emm	E:min7 (E G B D)	.	.	guitar
=56	=56	=56	=56	=56	=56	=56
1r	.	1Amm	A:min7 (A C E G)	newline	103.701	guitar
=57	=57	=57	=57	=57	=57	=57
1r	.	1Amm	A:min7 (A C E G)	.	.	guitar
=58	=58	=58	=58	=58	=58	=58
1r	.	1Emm	E:min7 (E G B D)	.	.	guitar
=59	=59	=59	=59	=59	=59	=59
1r	.	1Emm	E:min7 (E G B D)	.	.	guitar
=60	=60	=60	=60	=60	=60	=60
1r	.	1Amm	A:min7 (A C E G)	newline	111.394	guitar
=61	=61	=61	=61	=61	=61	=61
1r	.	1Amm	A:min7 (A C E G)	.	.	guitar
=62	=62	=62	=62	=62	=62	=62
1r	.	2B-M	B-:1 (B-)	.	.	guitar
.	.	2Amm	A:1 (A)	.	.	guitar
=63	=63	=63	=63	=63	=63	=63
*	*	*>A_trans	*>A_trans	*>A_trans	*>A_trans	*>A_trans
1r	.	1Emm	E:min7 (E G B D)	newline	117.022	guitar
=64	=64	=64	=64	=64	=64	=64
1r	.	2Emm	E:min9 (E G D F#)	.	.	guitar
.	.	2Emm	E:min7 (E G B D)	.	.	guitar
=65	=65	=65	=65	=65	=65	=65
1r	.	1Emm	E:min7 (E G B D)	.	.	guitar
=66	=66	=66	=66	=66	=66	=66
1r	.	2Emm	E:min9 (E G D F#)	.	.	guitar
.	.	2Emm	E:min7 (E G B D)	.	.	guitar
=67	=67	=67	=67	=67	=67	=67
*	*	*>B2_solo	*>B2_solo	*>B2_solo	*>B2_solo	*>B2_solo
1r	.	1Emm	E:min7 (E G B D)	newline	124.672	guitar
=68	=68	=68	=68	=68	=68	=68
1r	.	2Emm	E:min9 (E G D F#)	.	.	guitar
.	.	2Emm	E:min7 (E G B D)	.	.	guitar
=69	=69	=69	=69	=69	=69	=69
1r	.	1Emm	E:min7 (E G B D)	.	.	guitar
=70	=70	=70	=70	=70	=70	=70
1r	.	2Emm	E:min9 (E G D F#)	.	.	guitar
.	.	2Emm	E:min7 (E G B D)	.	.	guitar
=71	=71	=71	=71	=71	=71	=71
1r	.	1Emm	E:min7 (E G B D)	newline	132.333	guitar
=72	=72	=72	=72	=72	=72	=72
1r	.	2Emm	E:min9 (E G D F#)	.	.	guitar
.	.	2Emm	E:min7 (E G B D)	.	.	guitar
=73	=73	=73	=73	=73	=73	=73
1r	.	1Emm	E:min7 (E G B D)	.	.	guitar
=74	=74	=74	=74	=74	=74	=74
1r	.	2Emm	E:min9 (E G D F#)	.	.	guitar
.	.	2Emm	E:min7 (E G B D)	.	.	guitar
=75	=75	=75	=75	=75	=75	=75
1r	.	1Amm	A:min7 (A C E G)	newline	139.959	guitar
=76	=76	=76	=76	=76	=76	=76
1r	.	1Amm	A:min7 (A C E G)	.	.	guitar
=77	=77	=77	=77	=77	=77	=77
1r	.	1Emm	E:min7 (E G B D)	.	.	guitar
=78	=78	=78	=78	=78	=78	=78
1r	.	1Emm	E:min7 (E G B D)	.	.	guitar
=79	=79	=79	=79	=79	=79	=79
1r	.	1Amm	A:min7 (A C E G)	newline	147.598	guitar
=80	=80	=80	=80	=80	=80	=80
1r	.	1Amm	A:min7 (A C E G)	.	.	guitar
=81	=81	=81	=81	=81	=81	=81
1r	.	2B-M	B-:1 (B-)	.	.	guitar
.	.	2Amm	A:1 (A)	.	.	guitar
=82	=82	=82	=82	=82	=82	=82
*	*	*>A_trans	*>A_trans	*>A_trans	*>A_trans	*>A_trans
1r	.	1Emm	E:min7 (E G B D)	newline	153.329	guitar
=83	=83	=83	=83	=83	=83	=83
1r	.	2Emm	E:min9 (E G D F#)	.	.	guitar
.	.	2Emm	E:min7 (E G B D)	.	.	guitar
=84	=84	=84	=84	=84	=84	=84
2r	.	1Emm	E:min7 (E G B D)	.	.	guitar
4r	.	.	.	.	.	.
8r	.	.	.	.	.	.
8B	I'm	.	.	.	.	.
=85	=85	=85	=85	=85	=85	=85
8b	stan	2Emm	E:min9 (E G D F#)	.	.	guitar
8a	_	.	.	.	.	.
8g	ding	.	.	.	.	.
8gq	_	.	.	.	.	.
[8a	here,	.	.	.	.	.
4a]	_	2Emm	E:min7 (E G B D)	.	.	guitar
8g	be-	.	.	.	.	.
8g	-wil	.	.	.	.	.
=86	=86	=86	=86	=86	=86	=86
*	*	*>B_verse	*>B_verse	*>B_verse	*>B_verse	*>B_verse
8e	_	1Emm	E:min7 (E G B D)	newline	160.942	voice
8e	dered,	.	.	.	.	.
4r	_	.	.	.	.	.
8r	.	.	.	.	.	.
8E	I	.	.	.	.	.
8G	can't	.	.	.	.	.
8A	re-	.	.	.	.	.
=87	=87	=87	=87	=87	=87	=87
8Aq	_	.	.	.	.	.
8B	-mem-	2Emm	E:min9 (E G D F#)	.	.	voice
8A	-ber	.	.	.	.	.
8G	just	.	.	.	.	.
8Gq	_	.	.	.	.	.
[8A	what	.	.	.	.	.
8A]	_	2Emm	E:min7 (E G B D)	.	.	voice
4G	I've	.	.	.	.	.
8G	done	.	.	.	.	.
=88	=88	=88	=88	=88	=88	=88
4E	_	1Emm	E:min7 (E G B D)	.	.	voice
4r	.	.	.	.	.	.
4r	.	.	.	.	.	.
8b	I	.	.	.	.	.
8g	can	.	.	.	.	.
=89	=89	=89	=89	=89	=89	=89
8aq	_	.	.	.	.	.
4b	hear	2Emm	E:min9 (E G D F#)	.	.	voice
8g	the	.	.	.	.	.
8gq	_	.	.	.	.	.
[8a	si	.	.	.	.	.
8a]	_	2Emm	E:min7 (E G B D)	.	.	voice
8g	rens	.	.	.	.	.
8e	s	.	.	.	.	.
8e	whi	.	.	.	.	.
=90	=90	=90	=90	=90	=90	=90
8d	_	1Emm	E:min7 (E G B D)	newline	168.572	voice
4e	ning,	.	.	.	.	.
8r	_	.	.	.	.	.
8r	.	.	.	.	.	.
8B	my	.	.	.	.	.
8dq	_	.	.	.	.	.
4e	eyes	.	.	.	.	.
=91	=91	=91	=91	=91	=91	=91
8dq	_	.	.	.	.	.
4e	blin-	2Emm	E:min9 (E G D F#)	.	.	voice
8d	-ded	.	.	.	.	.
16A	by	.	.	.	.	.
16B	_	.	.	.	.	.
4A	_	2Emm	E:min7 (E G B D)	.	.	voice
8G	the	.	.	.	.	.
8G	sun	.	.	.	.	.
=92	=92	=92	=92	=92	=92	=92
4E	_	1Emm	E:min7 (E G B D)	.	.	voice
4r	.	.	.	.	.	.
4r	.	.	.	.	.	.
8r	.	.	.	.	.	.
8B	I	.	.	.	.	.
=93	=93	=93	=93	=93	=93	=93
8b	know	2Emm	E:min9 (E G D F#)	.	.	voice
8a	that	.	.	.	.	.
8g	I	.	.	.	.	.
8gq	_	.	.	.	.	.
4a	should	.	.	.	.	.
.	.	2Emm	E:min7 (E G B D)	.	.	voice
8g	be	.	.	.	.	.
8e	_	.	.	.	.	.
8gq	_	.	.	.	.	.
[8a	run	.	.	.	.	.
=94	=94	=94	=94	=94	=94	=94
8a]	_	1Amm	A:min7 (A C E G)	newline	176.199	voice
4g	ning,	.	.	.	.	.
8r	_	.	.	.	.	.
8r	.	.	.	.	.	.
8B	my	.	.	.	.	.
4e	heart's	.	.	.	.	.
=95	=95	=95	=95	=95	=95	=95
8e	bea-	1Amm	A:min7 (A C E G)	.	.	voice
8d	-ting	.	.	.	.	.
8r	.	.	.	.	.	.
[8e	just	.	.	.	.	.
8e]	_	.	.	.	.	.
8e	like	.	.	.	.	.
8r	.	.	.	.	.	.
8d	a	.	.	.	.	.
=96	=96	=96	=96	=96	=96	=96
8e	drum	1Emm	E:min7 (E G B D)	.	.	voice
8B	_	.	.	.	.	.
4r	.	.	.	.	.	.
4r	.	.	.	.	.	.
8B	Now	.	.	.	.	.
8B	they've	.	.	.	.	.
=97	=97	=97	=97	=97	=97	=97
16gQ	_	.	.	.	.	.
16aQ	_	.	.	.	.	.
4b	knocked	1Emm	E:min7 (E G B D)	.	.	voice
8g	me	.	.	.	.	.
8gq	_	.	.	.	.	.
[8a	down	.	.	.	.	.
8a]	_	.	.	.	.	.
4r	.	.	.	.	.	.
8g	and	.	.	.	.	.
=98	=98	=98	=98	=98	=98	=98
8g	ta-	1Amm	A:min7 (A C E G)	newline	183.806	voice
8e	-ken	.	.	.	.	.
4e	it,	.	.	.	.	.
4r	_	.	.	.	.	.
8r	.	.	.	.	.	.
8E	that	.	.	.	.	.
=99	=99	=99	=99	=99	=99	=99
8Aq	_	.	.	.	.	.
4B-	still-	1Amm	A:min7 (A C E G)	.	.	voice
4A	-hot	.	.	.	.	.
8A	smo	.	.	.	.	.
8G	_	.	.	.	.	.
8E	king	.	.	.	.	.
8G	gun	.	.	.	.	.
=100	=100	=100	=100	=100	=100	=100
4.E	_	2B-M	B-:1 (B-)	.	.	voice
8r	.	.	.	.	.	.
2r	.	2Amm	A:1 (A)	.	.	voice
=101	=101	=101	=101	=101	=101	=101
*	*	*>A_outro	*>A_outro	*>A_outro	*>A_outro	*>A_outro
2r	.	1Emm	E:min7 (E G B D)	newline	189.532	guitar
4r	.	.	.	.	.	.
8r	.	.	.	.	.	.
[8e	Yeah,	.	.	.	.	.
=102	=102	=102	=102	=102	=102	=102
2e]	_	1Emm	E:min7 (E G B D)	.	.	guitar
4e	yeah!	.	.	.	.	.
4r	_	.	.	.	.	.
=103	=103	=103	=103	=103	=103	=103
8Aq	_	.	.	.	.	.
4B-	Still-	1Emm	E:min7 (E G B D)	.	.	guitar
4A	-hot	.	.	.	.	.
8A	smo	.	.	.	.	.
8G	_	.	.	.	.	.
8E	king	.	.	.	.	.
[8G	gun!	.	.	.	.	.
=104	=104	=104	=104	=104	=104	=104
4.G]	_	1Emm	E:min7 (E G B D)	.	.	guitar
8r	_	.	.	.	.	.
2r	.	.	.	.	.	.
=105	=105	=105	=105	=105	=105	=105
2r	.	1Emm	E:min7 (E G B D)	newline	197.206	guitar
4r	.	.	.	.	.	.
8r	.	.	.	.	.	.
8B	They've	.	.	.	.	.
=106	=106	=106	=106	=106	=106	=106
8g	ta-	1Emm	E:min7 (E G B D)	.	.	guitar
8e	-ken	.	.	.	.	.
4e	it!	.	.	.	.	.
2r	_	.	.	.	.	.
=107	=107	=107	=107	=107	=107	=107
8Aq	_	.	.	.	.	.
4B-	Still-	1Emm	E:min7 (E G B D)	.	.	guitar
4A	-hot	.	.	.	.	.
8A	smo	.	.	.	.	.
8G	_	.	.	.	.	.
8E	king	.	.	.	.	.
8G	gun!	.	.	.	.	.
=108	=108	=108	=108	=108	=108	=108
4.E	_	1Emm	E:min7 (E G B D)	.	.	guitar
8r	_	.	.	.	.	.
2r	.	.	.	.	.	.
=109	=109	=109	=109	=109	=109	=109
4r	.	1Emm	E:min7 (E G B D)	newline	204.857	guitar
8r	.	.	.	.	.	.
16gQ	_	.	.	.	.	.
16aQ	_	.	.	.	.	.
8b	Oh,	.	.	.	.	.
4a	_	.	.	.	.	.
8g	they've	.	.	.	.	.
8a	ta-	.	.	.	.	.
=110	=110	=110	=110	=110	=110	=110
8e	-ken	1Emm	E:min7 (E G B D)	.	.	guitar
4.e	it!	.	.	.	.	.
8a#q	_	.	.	.	.	.
4r	_	.	.	.	.	.
8r	.	.	.	.	.	.
8BB	That	.	.	.	.	.
=111	=111	=111	=111	=111	=111	=111
8Aq	_	.	.	.	.	.
4B-	still-	1Emm	E:min7 (E G B D)	.	.	guitar
4A	-hot	.	.	.	.	.
8A	smo	.	.	.	.	.
8G	_	.	.	.	.	.
8E	king	.	.	.	.	.
8G	gun!	.	.	.	.	.
=112	=112	=112	=112	=112	=112	=112
4.E	_	1Emm	E:min7 (E G B D)	.	.	guitar
8r	_	.	.	.	.	.
4r	.	.	.	.	.	.
8r	.	.	.	.	.	.
8B	They've	.	.	.	.	.
=113	=113	=113	=113	=113	=113	=113
8f#q	_	.	.	.	.	.
8g	knocked	1Emm	E:min7 (E G B D)	newline	212.495	guitar
8g	me	.	.	.	.	.
4g	down!	.	.	.	.	.
4r	_	.	.	.	.	.
8r	.	.	.	.	.	.
8B	And	.	.	.	.	.
=114	=114	=114	=114	=114	=114	=114
8f#q	_	.	.	.	.	.
8g	ta-	1Emm	E:min7 (E G B D)	.	.	guitar
8g	-ken	.	.	.	.	.
8f#q	_	.	.	.	.	.
4g	it!	.	.	.	.	.
2r	_	.	.	.	.	.
=115	=115	=115	=115	=115	=115	=115
8r	.	1Emm	E:min7 (E G B D)	.	.	guitar
16g	Oh	.	.	.	.	.
[16a	_	.	.	.	.	.
4a_	_	.	.	.	.	.
4a]	_	.	.	.	.	.
8g	(vocalising)	.	.	.	.	.
8g	_	.	.	.	.	.
=116	=116	=116	=116	=116	=116	=116
8e	_	1Emm	E:min7 (E G B D)	.	.	guitar
8e	_	.	.	.	.	.
4r	.	.	.	.	.	.
2r	.	.	.	.	.	.
=117	=117	=117	=117	=117	=117	=117
1r	.	1Emm	E:min7 (E G B D)	newline	220.098	guitar
=118	=118	=118	=118	=118	=118	=118
1r	.	1Emm	E:min7 (E G B D)	.	.	guitar
=119	=119	=119	=119	=119	=119	=119
4r	.	1Emm	E:min7 (E G B D)	.	.	guitar
8r	.	.	.	.	.	.
[8ee	Oh!	.	.	.	.	.
2ee_	_	.	.	.	.	.
=120	=120	=120	=120	=120	=120	=120
4.ee]	_	1Emm	E:min7 (E G B D)	.	.	guitar
8ddq	_	.	.	.	.	.
8ee	_	.	.	.	.	.
2r	.	.	.	.	.	.
=121	=121	=121	=121	=121	=121	=121
*	*	*>_fadeout	*>_fadeout	*>_fadeout	*>_fadeout	*>_fadeout
1r	.	1Emm	E:min7 (E G B D)	newline	227.756	guitar
=122	=122	=122	=122	=122	=122	=122
1r	.	1Emm	E:min7 (E G B D)	.	.	guitar
=123	=123	=123	=123	=123	=123	=123
1r	.	1Emm	E:min7 (E G B D)	.	.	guitar
=124	=124	=124	=124	=124	=124	=124
1r	.	1Emm	E:min7 (E G B D)	.	.	guitar
*-	*-	*	*
=124	=124	=124	=124	=124
1Emm	E:min7 (E G B D)	.	.	guitar
1r;	r	.	237.261	r
1r;	r	.	240.797	r
*-	*-	*-	*-	*-
!!!BillboardChartDate: 1987/03/07, 1987/03/07
!!!BillboardPeak: 22, 22
!!!BillboardWeeksOnChart: 14, 14
!!!COC: The Robert Cray Band
!!!ENC: Nathaniel Condit-Schultz
!!!EST: Awating manual error checking and editing.
!!!OTL: Smoking Gun
!!!RDF**chordsym: original McGill chord annotation + (implied pitch class set, with bass pitch in first position)
!!!RDF**harmony: **recip + pitch class of root + harmonic quality
!!!RDF**leadinstrument: original McGill primary instrumentation annotation
!!!RDF**phrase: newline = linebreak in original McGill transcription
!!!RDF**timestamp: McGill audio timestamp in seconds
!!!RDT: 2017/01/12/
!!!SampleActualRank: 56, 56
!!!SampleID#: 55, 329
!!!SampleTargetRank: 56, 58
